synths/iXMR.svg

<svg width="480" height="480" viewBox="0 0 480 480" fill="none" xmlns="http://www.w3.org/2000/svg"><circle cx="240" cy="240" r="240" fill="url(#paint0_linear)"/><path d="M413.332 74h-44.615c-26.479 0-49.238 10.625-68.278 31.874L246.427 172h98.441l16.957-20.643c3.287-3.762 7.334-5.647 12.149-5.647h86.795a236.19 236.19 0 00-3.128-7h-83.667c-6.927 0-12.865 2.828-17.42 8.042l-.07.08L341.559 165h-80.376l44.574-54.572C323.562 90.611 344.443 81 368.717 81h51.061a240.48 240.48 0 00-6.446-7zM66.667 406h45.017c26.479 0 49.239-10.732 68.278-32.205L233.888 308h-98.686l-16.626 20.303c-3.508 3.771-7.554 5.648-12.149 5.648H19.086a238.894 238.894 0 003.114 7h84.227c6.778 0 12.614-2.87 17.274-7.88l.151-.162L138.518 315H219.1l-44.464 54.252C156.819 389.299 135.94 399 111.684 399H60.221a240.688 240.688 0 006.446 7zm394.243-72.04h-86.936c-4.603 0-8.535-1.77-11.822-5.317L345.245 308h-98.397l53.918 65.795C319.585 395.268 342.238 406 368.717 406h44.615a239.704 239.704 0 006.446-7h-51.061c-24.257 0-45.021-9.701-62.611-29.732L261.634 315h80.296l14.942 18.244.145.156c4.535 4.895 10.294 7.56 16.957 7.56h83.821a239.708 239.708 0 003.115-7zM19.23 145.71h87.197c4.816 0 8.862 1.885 12.149 5.647L135.439 172h41.187l28.614-34.922-25.278-30.873C160.923 84.741 138.269 74 112.011 74H66.667a241.47 241.47 0 00-6.446 7h51.79c24.015 0 44.794 9.694 62.624 29.748l21.557 26.328L173.312 165H138.76l-14.836-18.161-.077-.087c-4.554-5.214-10.493-8.042-17.42-8.042H22.358a238.014 238.014 0 00-3.127 7z" fill="#ED1EFF"/><path d="M78.145 204.84h28.896l13.824 16.896c1.728 1.856 2.944 3.424 3.648 4.704h.384c.832-1.28 2.048-2.848 3.648-4.704l13.92-16.896h28.896l-30.72 33.504L172.129 273h-29.184l-13.344-16.224c-2.56-2.88-4.16-4.896-4.8-6.048h-.192c-.64 1.024-2.272 3.072-4.896 6.144L106.465 273H77.281l31.488-34.656-30.624-33.504zm149.977 0l12.192 34.656c.128.448.512 1.632 1.152 3.552.704 1.856 1.152 3.52 1.344 4.992h.192c.192-1.536.608-3.264 1.248-5.184.704-1.92 1.12-3.104 1.248-3.552l11.712-34.464h37.344V273H272.09v-37.44c0-4.416.448-9.216 1.344-14.4h-.48c-.32 1.216-.96 3.2-1.92 5.952a144.001 144.001 0 01-2.688 7.584L253.562 273h-22.848l-13.92-38.112a169.221 169.221 0 01-4.32-13.728h-.384c.64 3.328.96 8.128.96 14.4V273h-21.312v-68.16h36.384zm132.246 45.888h-14.304V273h-24.576v-68.16H369.2c10.816 0 18.56 2.144 23.232 6.432 4.736 4.224 7.104 9.536 7.104 15.936 0 4.288-1.152 8.32-3.456 12.096-2.24 3.712-5.824 6.56-10.752 8.544L401.84 273h-27.072l-14.4-22.272zm-14.304-14.688h17.28c3.648 0 6.272-.704 7.872-2.112 1.6-1.472 2.4-3.424 2.4-5.856 0-2.304-.8-4.128-2.4-5.472-1.6-1.408-4.192-2.112-7.776-2.112h-17.376v15.552z" fill="#fff"/><defs><linearGradient id="paint0_linear" x1="240" y1="0" x2="240" y2="701.818" gradientUnits="userSpaceOnUse"><stop stop-color="#08021E"/><stop offset="1" stop-color="#1F0777"/></linearGradient></defs></svg>

<svg width="480" height="480" viewBox="0 0 480 480" fill="none" xmlns="http://www.w3.org/2000/svg">
<circle cx="240" cy="240" r="240" fill="url(#paint0_linear)"/>
<mask id="mask0" mask-type="alpha" maskUnits="userSpaceOnUse" x="0" y="0" width="480" height="480">
<circle cx="240" cy="240" r="240" fill="url(#paint1_linear)"/>
</mask>
<g mask="url(#mask0)">
<path fill-rule="evenodd" clip-rule="evenodd" d="M123.924 146.839L138.76 165H173.312L196.192 137.076L174.636 110.748C156.805 90.694 136.027 81 112.011 81H12V138.71H106.428C113.355 138.71 119.293 141.538 123.848 146.752L123.924 146.839ZM179.963 106.205L205.24 137.078L176.626 172H135.439L118.576 151.357C115.289 147.595 111.243 145.71 106.428 145.71H7.95094C7.07626 145.71 6.36061 145.433 5.82167 144.879C5.27389 144.334 5 143.717 5 143.056V76.6539C5 75.9927 5.27389 75.385 5.82167 74.831C6.36061 74.277 7.07626 74 7.95094 74H112.011C138.27 74 160.923 84.7408 179.963 106.205ZM123.852 332.909L123.701 333.071C119.042 338.081 113.205 340.951 106.428 340.951H12.3269V399H111.685C135.94 399 156.82 389.299 174.636 369.252L219.1 315H138.518L123.852 332.909ZM135.203 308H233.888L179.963 373.795C160.923 395.268 138.164 406 111.685 406H7.95094C7.07626 406 6.41363 405.723 5.9807 405.169C5.53894 404.615 5.3269 403.9 5.3269 403.007V336.605C5.3269 335.943 5.53894 335.336 5.9807 334.782C6.41363 334.228 7.07626 333.951 7.95094 333.951H106.428C111.022 333.951 115.068 332.074 118.576 328.303L135.203 308ZM362.153 328.643C365.439 332.19 369.371 333.96 373.974 333.96H472.451C473.325 333.96 473.979 334.237 474.421 334.791C474.854 335.345 475.075 336.069 475.075 336.944V403.346C475.075 404.007 474.854 404.624 474.421 405.169C473.979 405.723 473.325 406 472.451 406H368.717C342.238 406 319.585 395.268 300.766 373.795L246.848 308H345.245L362.153 328.643ZM341.93 315H261.635L306.106 369.268C323.696 389.299 344.46 399 368.717 399H468.075V340.96H373.974C367.312 340.96 361.552 338.295 357.018 333.4L356.872 333.244L341.93 315ZM361.826 151.357C365.112 147.595 369.159 145.71 373.974 145.71H472.451C473.325 145.71 473.979 145.433 474.421 144.879C474.854 144.334 475.075 143.717 475.075 143.056V76.6539C475.075 75.7693 474.854 75.108 474.421 74.6612C473.979 74.2234 473.325 74 472.451 74H368.717C342.238 74 319.479 84.6246 300.439 105.874L246.427 172H344.868L361.826 151.357ZM341.559 165L356.484 146.832L356.554 146.752C361.109 141.538 367.047 138.71 373.974 138.71H468.075V81H368.717C344.443 81 323.562 90.6107 305.758 110.428L261.183 165H341.559Z" fill="#ED1EFF"/>
</g>
<path d="M78.1453 204.84H107.041L120.865 221.736C122.593 223.592 123.809 225.16 124.513 226.44H124.897C125.729 225.16 126.945 223.592 128.545 221.736L142.465 204.84H171.361L140.641 238.344L172.129 273H142.945L129.601 256.776C127.041 253.896 125.441 251.88 124.801 250.728H124.609C123.969 251.752 122.337 253.8 119.713 256.872L106.465 273H77.2812L108.769 238.344L78.1453 204.84Z" fill="white"/>
<path d="M228.122 204.84L240.314 239.496C240.442 239.944 240.826 241.128 241.466 243.048C242.17 244.904 242.618 246.568 242.81 248.04H243.002C243.194 246.504 243.61 244.776 244.25 242.856C244.954 240.936 245.37 239.752 245.498 239.304L257.21 204.84H294.554V273H272.09V235.56C272.09 231.144 272.538 226.344 273.434 221.16H272.954C272.634 222.376 271.994 224.36 271.034 227.112C270.138 229.864 269.242 232.392 268.346 234.696L253.562 273H230.714L216.794 234.888C215.13 230.28 213.69 225.704 212.474 221.16H212.09C212.73 224.488 213.05 229.288 213.05 235.56V273H191.738V204.84H228.122Z" fill="white"/>
<path d="M360.368 250.728H346.064V273H321.488V204.84H369.2C380.016 204.84 387.76 206.984 392.432 211.272C397.168 215.496 399.536 220.808 399.536 227.208C399.536 231.496 398.384 235.528 396.08 239.304C393.84 243.016 390.256 245.864 385.328 247.848L401.84 273H374.768L360.368 250.728ZM346.064 236.04H363.344C366.992 236.04 369.616 235.336 371.216 233.928C372.816 232.456 373.616 230.504 373.616 228.072C373.616 225.768 372.816 223.944 371.216 222.6C369.616 221.192 367.024 220.488 363.44 220.488H346.064V236.04Z" fill="white"/>
<defs>
<linearGradient id="paint0_linear" x1="240" y1="0" x2="240" y2="701.818" gradientUnits="userSpaceOnUse">
<stop stop-color="#08021E"/>
<stop offset="1" stop-color="#1F0777"/>
</linearGradient>
<linearGradient id="paint1_linear" x1="240" y1="0" x2="240" y2="701.818" gradientUnits="userSpaceOnUse">
<stop stop-color="#08021E"/>
<stop offset="1" stop-color="#1F0777"/>
</linearGradient>
</defs>
</svg>
